assets/icons/eye.svg

<svg xml:space="preserve" fill="#ebebeb" style="fill-rule:evenodd;clip-rule:evenodd;stroke-linejoin:round;stroke-miterlimit:2" viewBox="0 0 696 435" xmlns="http://www.w3.org/2000/svg"><path d="M4985 6863c-365-20-836-149-1201-329-446-220-887-536-1220-876-170-173-365-391-385-430-24-47-24-94-1-133 43-70 193-248 291-345 321-319 633-561 1009-783 411-244 864-411 1285-475 175-26 577-23 762 6 788 125 1570 558 2216 1227 121 126 322 353 337 382 19 35 14 94-11 135-57 94-419 472-602 629-351 301-832 602-1204 754-324 131-649 211-961 235-130 10-184 10-315 3m390-234c408-41 889-220 1372-511 330-198 724-532 1026-871 64-71 68-78 54-97-8-11-78-89-155-174-459-500-1011-886-1560-1090-526-196-996-242-1471-145-447 92-925 310-1369 626-317 226-615 490-815 726l-49 56 120 133c146 163 454 464 565 553 113 91 327 238 488 336 420 256 975 442 1409 472 73 6 261-1 385-14" style="fill:#fff;fill-rule:nonzero" transform="matrix(.1 0 0 -.1 -165 747)"/><path d="M5017 6279c-456-43-862-391-984-844-24-91-27-117-27-280-1-154 2-193 21-266 100-392 409-711 797-823 386-112 808-2 1097 286 222 221 339 502 339 815 0 417-242 808-617 997-186 93-413 135-626 115m306-248c344-88 599-334 684-660 20-75 25-121 25-211 1-294-126-538-378-729-314-238-750-235-1071 7-229 174-353 426-353 719 0 420 303 786 725 876 104 23 275 21 368-2" style="fill:#fff;fill-rule:nonzero" transform="matrix(.1 0 0 -.1 -165 747)"/><path d="M4997 5695c-135-37-283-158-346-282-109-217-71-474 93-639 98-98 258-163 402-164 67 0 193 33 256 67 106 58 217 211 253 349 73 282-103 581-394 668-65 19-196 20-264 1" style="fill:#fff;fill-rule:nonzero" transform="matrix(.1 0 0 -.1 -165 747)"/></svg>

<?xml version="1.0" encoding="UTF-8" standalone="no"?>
<!DOCTYPE svg PUBLIC "-//W3C//DTD SVG 1.1//EN" "http://www.w3.org/Graphics/SVG/1.1/DTD/svg11.dtd">
<svg width="100%" height="100%" viewBox="0 0 696 435" version="1.1" xmlns="http://www.w3.org/2000/svg" xmlns:xlink="http://www.w3.org/1999/xlink" xml:space="preserve" xmlns:serif="http://www.serif.com/" style="fill-rule:evenodd;clip-rule:evenodd;stroke-linejoin:round;stroke-miterlimit:2;">
    <g transform="matrix(1,0,0,1,-165,-277)">
        <g transform="matrix(0.1,0,0,-0.1,0,1024)">
            <path d="M4985,6863C4620,6843 4149,6714 3784,6534C3338,6314 2897,5998 2564,5658C2394,5485 2199,5267 2179,5228C2155,5181 2155,5134 2178,5095C2221,5025 2371,4847 2469,4750C2790,4431 3102,4189 3478,3967C3889,3723 4342,3556 4763,3492C4938,3466 5340,3469 5525,3498C6313,3623 7095,4056 7741,4725C7862,4851 8063,5078 8078,5107C8097,5142 8092,5201 8067,5242C8010,5336 7648,5714 7465,5871C7114,6172 6633,6473 6261,6625C5937,6756 5612,6836 5300,6860C5170,6870 5116,6870 4985,6863ZM5375,6629C5783,6588 6264,6409 6747,6118C7077,5920 7471,5586 7773,5247C7837,5176 7841,5169 7827,5150C7819,5139 7749,5061 7672,4976C7213,4476 6661,4090 6112,3886C5586,3690 5116,3644 4641,3741C4194,3833 3716,4051 3272,4367C2955,4593 2657,4857 2457,5093L2408,5149L2528,5282C2674,5445 2982,5746 3093,5835C3206,5926 3420,6073 3581,6171C4001,6427 4556,6613 4990,6643C5063,6649 5251,6642 5375,6629Z" style="fill:white;fill-rule:nonzero;"/>
            <path d="M5017,6279C4561,6236 4155,5888 4033,5435C4009,5344 4006,5318 4006,5155C4005,5001 4008,4962 4027,4889C4127,4497 4436,4178 4824,4066C5210,3954 5632,4064 5921,4352C6143,4573 6260,4854 6260,5167C6260,5584 6018,5975 5643,6164C5457,6257 5230,6299 5017,6279ZM5323,6031C5667,5943 5922,5697 6007,5371C6027,5296 6032,5250 6032,5160C6033,4866 5906,4622 5654,4431C5340,4193 4904,4196 4583,4438C4354,4612 4230,4864 4230,5157C4230,5577 4533,5943 4955,6033C5059,6056 5230,6054 5323,6031Z" style="fill:white;fill-rule:nonzero;"/>
            <path d="M4997,5695C4862,5658 4714,5537 4651,5413C4542,5196 4580,4939 4744,4774C4842,4676 5002,4611 5146,4610C5213,4610 5339,4643 5402,4677C5508,4735 5619,4888 5655,5026C5728,5308 5552,5607 5261,5694C5196,5713 5065,5714 4997,5695Z" style="fill:white;fill-rule:nonzero;"/>
        </g>
    </g>
</svg>
